images/form_icon.svg

<svg width="16" height="16" viewBox="0 0 16 16" fill="none" xmlns="http://www.w3.org/2000/svg">
<path d="M5.75 10.8564C6.05 10.8564 6.25 10.6564 6.25 10.3564C6.25 10.0564 6.05 9.85645 5.75 9.85645C5.45 9.85645 5.25 10.0564 5.25 10.3564C5.25 10.6564 5.45 10.8564 5.75 10.8564Z" fill="black"/>
<path d="M15 2.85645H13V0.856445H12V2.85645H4V0.856445H3V2.85645H1C0.4 2.85645 0 3.25645 0 3.85645V14.8564C0 15.3564 0.4 15.8564 1 15.8564H15C15.5 15.8564 16 15.3564 16 14.8564V3.85645C16 3.25645 15.5 2.85645 15 2.85645ZM15 14.8564H1V7.85645H15V14.8564ZM1 6.85645V3.85645H3V5.85645H4V3.85645H12V5.85645H13V3.85645H15V6.85645H1Z" fill="black"/>
<path d="M8 10.8564C8.3 10.8564 8.5 10.6564 8.5 10.3564C8.5 10.0564 8.3 9.85645 8 9.85645C7.7 9.85645 7.5 10.0564 7.5 10.3564C7.5 10.6564 7.7 10.8564 8 10.8564Z" fill="black"/>
<path d="M10.25 10.8564C10.55 10.8564 10.75 10.6564 10.75 10.3564C10.75 10.0564 10.55 9.85645 10.25 9.85645C9.95 9.85645 9.75 10.0564 9.75 10.3564C9.75 10.6564 9.95 10.8564 10.25 10.8564Z" fill="black"/>
<path d="M5.75 11.8564C5.45 11.8564 5.25 12.0564 5.25 12.3564C5.25 12.6564 5.45 12.8564 5.75 12.8564C6.05 12.8564 6.25 12.6564 6.25 12.3564C6.25 12.0564 6.05 11.8564 5.75 11.8564Z" fill="black"/>
<path d="M3.5 10.8564C3.8 10.8564 4 10.6564 4 10.3564C4 10.0564 3.8 9.85645 3.5 9.85645C3.2 9.85645 3 10.0564 3 10.3564C3 10.6564 3.2 10.8564 3.5 10.8564Z" fill="black"/>
<path d="M3.5 11.8564C3.2 11.8564 3 12.0564 3 12.3564C3 12.6564 3.2 12.8564 3.5 12.8564C3.8 12.8564 4 12.6564 4 12.3564C4 12.0564 3.8 11.8564 3.5 11.8564Z" fill="black"/>
<path d="M8 11.8564C7.7 11.8564 7.5 12.0564 7.5 12.3564C7.5 12.6564 7.7 12.8564 8 12.8564C8.3 12.8564 8.5 12.6564 8.5 12.3564C8.5 12.0564 8.3 11.8564 8 11.8564Z" fill="black"/>
<path d="M10.25 11.8564C9.95 11.8564 9.75 12.0564 9.75 12.3564C9.75 12.6564 9.95 12.8564 10.25 12.8564C10.55 12.8564 10.75 12.6564 10.75 12.3564C10.75 12.0564 10.55 11.8564 10.25 11.8564Z" fill="black"/>
<path d="M12.5 10.8564C12.8 10.8564 13 10.6564 13 10.3564C13 10.0564 12.8 9.85645 12.5 9.85645C12.2 9.85645 12 10.0564 12 10.3564C12 10.6564 12.2 10.8564 12.5 10.8564Z" fill="black"/>
<path d="M12.5 11.8564C12.2 11.8564 12 12.0564 12 12.3564C12 12.6564 12.2 12.8564 12.5 12.8564C12.8 12.8564 13 12.6564 13 12.3564C13 12.0564 12.8 11.8564 12.5 11.8564Z" fill="black"/>
</svg>

<svg xmlns="http://www.w3.org/2000/svg" width="16" height="16" fill="none"><path fill="#000" d="M5.75 10.86c.3 0 .5-.2.5-.5s-.2-.5-.5-.5-.5.2-.5.5.2.5.5.5Z"/><path fill="#000" d="M15 2.86h-2v-2h-1v2H4v-2H3v2H1c-.6 0-1 .4-1 1v11c0 .5.4 1 1 1h14c.5 0 1-.5 1-1v-11c0-.6-.5-1-1-1Zm0 12H1v-7h14v7Zm-14-8v-3h2v2h1v-2h8v2h1v-2h2v3H1Z"/><path fill="#000" d="M8 10.86c.3 0 .5-.2.5-.5s-.2-.5-.5-.5-.5.2-.5.5.2.5.5.5ZM10.25 10.86c.3 0 .5-.2.5-.5s-.2-.5-.5-.5-.5.2-.5.5.2.5.5.5ZM5.75 11.86c-.3 0-.5.2-.5.5s.2.5.5.5.5-.2.5-.5-.2-.5-.5-.5ZM3.5 10.86c.3 0 .5-.2.5-.5s-.2-.5-.5-.5-.5.2-.5.5.2.5.5.5ZM3.5 11.86c-.3 0-.5.2-.5.5s.2.5.5.5.5-.2.5-.5-.2-.5-.5-.5ZM8 11.86c-.3 0-.5.2-.5.5s.2.5.5.5.5-.2.5-.5-.2-.5-.5-.5ZM10.25 11.86c-.3 0-.5.2-.5.5s.2.5.5.5.5-.2.5-.5-.2-.5-.5-.5ZM12.5 10.86c.3 0 .5-.2.5-.5s-.2-.5-.5-.5-.5.2-.5.5.2.5.5.5ZM12.5 11.86c-.3 0-.5.2-.5.5s.2.5.5.5.5-.2.5-.5-.2-.5-.5-.5Z"/></svg>
